X:2183
T:Gene O'Donnell's
O:england
R:jig
C:Ed Reavy
M:6/8
L:1/8
N:Written for Eugene O'Donnell, the talented
N:dancer and fiddler from Derry. Gene has been a close
N:friend of Ed's since the fifties.
K:G
E/2F/2|GFG AGA|Bef gfe|BFE EFG|FDF AGF|EB,E GFG|
BAB efg|ed^c dAF|1GEE E2:|2 GEE E f|eBe gfg|
bge efg|fdd d^cd|fdf agf|eBe gfg|bge efg|
ed^c dAF|GEE E2 f|eBe gfg|bfe efg|fdA FAd|
fdf agf|gbg faf|gfe Bcd|ed^c dAF|GEE E2||
